icons/prisma.svg

<svg width="16" height="16" viewBox="0 0 16 16" fill="none" xmlns="http://www.w3.org/2000/svg">
<path fill-rule="evenodd" clip-rule="evenodd" d="M2.11393 10.2367C1.96416 10.0442 1.96189 9.79889 2.10809 9.60447L7.61281 2.28527C7.91898 1.87818 8.65828 1.91377 8.90354 2.34741L13.9324 11.2393C14.1189 11.5692 13.9042 11.9574 13.4772 12.0618L5.65452 13.9748C5.33978 14.0517 5.00066 13.9486 4.82472 13.7223L2.11393 10.2367ZM8.24793 4.42535C8.30097 4.21003 8.6629 4.17898 8.7698 4.38057L12.2386 10.9232C12.3039 11.0464 12.2226 11.1885 12.0649 11.2269L6.65999 12.542C6.46133 12.5903 6.27102 12.4488 6.31184 12.2831L8.24793 4.42535Z" fill="#57CD8E"/>
</svg>

<svg xmlns="http://www.w3.org/2000/svg" width="16" height="16" fill="none"><path fill="#57CD8E" fill-rule="evenodd" d="M2.114 10.237a.506.506 0 0 1-.006-.633l5.505-7.319c.306-.407 1.045-.371 1.29.062l5.03 8.892c.186.33-.029.718-.456.823l-7.822 1.913c-.315.077-.654-.026-.83-.253l-2.711-3.485Zm6.134-5.812c.053-.215.415-.246.522-.044l3.469 6.542c.065.123-.016.265-.174.304L6.66 12.542c-.199.048-.389-.093-.348-.259l1.936-7.858Z" clip-rule="evenodd"/></svg>
